X: 1175
T: Calliope House
B: ralph
B: nick
B: to learn
M:6/8
R: jig
Q: 3/8=100
K:Dmajor
V:1 
|:"D"dAA fAA|"A"eAA "D"fAA|"G"B2e e2d|"A"efe dBA|"D"F2A A2F|
 "G"A2B d2e|1 "Em"f2f fed|"A"e3 ecA:|2 "G" f2f efe|"D"d3 efg||
 |:"D"a2a faa|eaa def|"G"g2g fed|"Em"e2e dBA|"D"FAA A2F|
 "G"A2B d2e|1 "Em"f2f fed|"A"e3 efg:|2 "G"f2f efe|"D"d3 FAB||
% abcbook-tune_id 63443f74dc03337c7ca95e43
% abcbook-link-0 https://www.youtube.com/watch?v=Lzi3PvRg4ig
% abcbook-link-title-0 Calliope House

% abcbook-boost 0
% abcbook-tablature 
% abcbook-transpose 
% abcbook-lastupdated 1666788332133
% abcbook-soundfonts 
% abcbook-repeats 3


